X:1
T:The Lord Is in His Holy Temple
T:Text: Habakkuk 2:20 Tune: George F. Root (1820-1895)
T:Irregular QUAM DILECTA www.hymnary.org//text/the_lord_is_in_his_holy_temple_the_lord
T:The Lord Is in His Holy Temple
T:This hymn is in the public domain.  You may freely use this score for personal and congregational worship.  If you reproduce the score, please credit Hymnary.org as the source. 
T:This hymn is in the public domain.  You may freely use this score for personal and congregational worship.  If you reproduce the score, please credit Hymnary.org as the source. 
Z:This hymn is in the public domain.  You may freely use this score for personal and congregational worship.  If you reproduce the score, please credit Hymnary.org as the source.
%%score ( 1 2 ) ( 3 4 )
L:1/8
M:4/4
K:D
V:1 treble nm="Piano" snm="Pno."
V:2 treble 
V:3 bass nm="Piano" snm="Pno."
V:4 bass 
V:1
 [DF]2 | [DF]3 [DF] [DF][DF][DF][DF] | (F2 G2) [DF]2 [DF]2 | [FA]3 [FA] [FA][FA][FA][FA] | %4
w: The|Lord is in his ho- ly|tem- * ple, the|Lord is in his ho- ly|
 (A2 B2) [FA]2 [FA]2 | G3 G [EG]2 [EG]2 | [CF]2 [CF]2 z2 [DB]2 | [DA]2 [DF]2 D2 E2 | %8
w: tem- * ple; let|all the earth keep|si- lence, let|all the earth keep|
 [DF]4 [DF]2 [DG]2 | E8 | [A,D]4 z2 [A,D]2 | [B,D]2 [B,D]2 z2 D2 | [A,D]2 [A,D]2 z2 [A,D]2 | %13
w: si- lence be-|fore|him, keep|si- lence, keep|si- lence be-|
 (([B,D]4 [A,C]4)) | [A,D]6 |] %15
w: fore _|him.|
V:2
 x2 | x8 | D4 x4 | x8 | F4 x4 | G3 G x4 | x8 | x4 D2 D2 | x8 | (D4 C4) | x8 | x6 D2 | x8 | x8 | %14
 x6 |] %15
V:3
 [D,A,]2 | [D,A,]3 [D,A,] [D,A,][D,A,][D,A,][D,A,] | (A,2 B,2) [D,A,]2 [D,A,]2 | %3
 [D,=C]3 [D,C] [D,C][D,C][D,C][D,C] | (=C2 D2) [D,C]2 [D,C]2 | [E,B,]3 [E,B,] [E,B,]2 [E,B,]2 | %6
 [F,^A,]2 [F,A,]2 z2 G,2 | [F,=A,]2 [D,A,]2 [B,,B,]2 [G,,B,]2 | [A,,A,]4 [A,,A,]2 [A,,A,]2 | %9
 (A,4 G,4) | [D,F,]4 z2 [C,F,]2 | [B,,F,]2 [B,,F,]2 z2 [B,,F,]2 | [A,,F,]2 [A,,F,]2 z2 [A,,F,]2 | %13
 G,8 | [D,F,]6 |] %15
V:4
 x2 | x8 | D,4 x4 | x8 | D,4 x4 | x8 | x6 G,2 | x8 | x8 | A,,8 | x8 | x8 | x8 | (G,,4 A,,4) | x6 |] %15

